X: 612
T: Grandfather's Clock
C:1870 Henry C. Work
B: jims roots
M:2/4
L:1/16
Q: 1/4=100
K:Gmaj
V:1 
D2 | "G"G2FG "D"A2GA | "G"B2cB "C"E2 AA | "G"G2G2 "D"F2EF | "G"GABc d2 DD |
"G"G2FG "D"A2GA | "G"(3BBB cB "C"E2 AA | "G"G2G2 "D"F2EF | "G"G4 z2:|
|:GB | "G"dcBA "Em"G2G2 | "A7"AGFE "D"D2 GB | "G"d2 B2 "Em"G2FG | "D7"A4 z2DD |
"G"G2 z2 "D"A2 z2 | "G"(3BBB cB "C"E2 AA | "G"G2G2 "D"F2EF | "G"G4 z2 :|
|: DD | "G"G2DD E2D2 | .B,2.D2 .B,2.D2 | GGDD E2D2 | .B,2.D2 .B,2.D2 |
"G"G2 z2 "D"A2 z2 | "G"(3BBB cB "C"E2 AA | "G"G2G2 "D"F2EF | "G"G4 z2 :|
% abcbook-tune_id 6298c25def0feb67aed510c5


% abcbook-boost 0
% abcbook-tablature 
% abcbook-transpose 
% abcbook-lastupdated 1654178398374
% abcbook-soundfonts 
% abcbook-repeats 1


